X: 15812
T: Goose Cove Gander
R: jig
M: 6/8
K: Dmajor
A|DFA def|gec AGE|FAd GBe|cag fdA|
DFA def|gec AGE|FAd cag|fdd d2:|
A|faf Adf|gBd g2f|e^gb bag|age cBA|
faf dfd|BdB G2B|Age cag|fdd d2:|

